icons/folder-test-open.svg

<svg xmlns="http://www.w3.org/2000/svg" viewBox="0 0 32 32">
  <path d="M28.96692,12H9.44152a2,2,0,0,0-1.89737,1.36754L4,24V10H28a2,2,0,0,0-2-2H15.1241a2,2,0,0,1-1.28038-.46357L12.5563,6.46357A2,2,0,0,0,11.27592,6H4A2,2,0,0,0,2,8V24a2,2,0,0,0,2,2H26l4.80523-11.21213A2,2,0,0,0,28.96692,12Z" style="fill: #00bfa5"/>
  <path d="M16,12v2h2V26a4,4,0,0,0,8,0V14h2V12Zm5,14a1,1,0,1,1,1-1A1,1,0,0,1,21,26Zm2-4a1,1,0,1,1,1-1A1,1,0,0,1,23,22Zm1-4H20V14h4Z" style="fill: #a7ffeb"/>
</svg>

<svg xmlns="http://www.w3.org/2000/svg" viewBox="0 0 32 32"><path fill="#00bfa5" d="M28.967 12H9.442a2 2 0 0 0-1.898 1.368L4 24V10h24a2 2 0 0 0-2-2H15.124a2 2 0 0 1-1.28-.464l-1.288-1.072A2 2 0 0 0 11.276 6H4a2 2 0 0 0-2 2v16a2 2 0 0 0 2 2h22l4.805-11.212A2 2 0 0 0 28.967 12Z"/><path fill="#a7ffeb" d="M16 12v2h2v12a4 4 0 0 0 8 0V14h2v-2Zm5 14a1 1 0 1 1 1-1 1 1 0 0 1-1 1Zm2-4a1 1 0 1 1 1-1 1 1 0 0 1-1 1Zm1-4h-4v-4h4Z"/></svg>
